DVA
CUT[Der Essigkrug
    Wo ist der Mann aus diesem Haus,]
CNR[der Oberhaupt]
REG[Europa, Mitteleuropa, Lothringen, Halsdorf ( Kr. Diedenhofen )]
KEY[D0045  16 Bb 2/4]
MEL[-5_  1_1_-5_-5_  -6_-6_-5_0_
    1__-6_-7_  1__0_
    -5_  -3_-4_-5_4_  3__1_
    3_  2_2_1_-7_  1__0_
    -5-5  1__-5_-5-5  -6__-5_
    -5_  1__-6_-7_  1__0_
    -5_  1_1_2_4_  3__1_
    3_  2_2_1_-7_  1__0_ //] >>
FCT[Scherzlied auf einen Hausstand]
CMT[Inzipit = Transposition zum Lied]
